X:17
T:Mrs Morrison's Strathspey. Roose.0390
B:John Roose MS, Manchester, 1850
Z:Village Music Project. David Jacobs May 2019
M:C
L:1/8
Q:1/4=100
K:D
F|D d2 F A>dF>d|G d2 F {F}E2 E>F| D d2 F AdFD| C>A,B,>C D2 DE|
D d2 F A>dF>d|D d2 F {F}E2 E>F|D d2 F A>dFA|B>ABc {c}d2 d:|
|: g|f>eda f>da>d|f>ed>f [e2A2] [eA]g|f>eda fdaA|B>ABc {c}d2 dg|
f>eda f>da>d|f>edg {f}e2 ef/g/|a>fg>e f>de>c|{c}d>B AF D2D:|]

